% bed_shape = 0x0,200x0,200x200,0x200
% before_layer_gcode = 
% gcode_arcs = 0
% gcode_comments = 1
% gcode_flavor = Custom DED
% has_heatbed = 1
% infill_first = 0
% layer_gcode = 
% nozzle_diameter = 1.2
% target_bead_width = 1.2
% infill_bead_width = 1.2
% bead_overlap = 20
% estimated_stepover = 0.960
% output_filename_format = [input_filename_base].gcode
% post_process = 
% travel_speed = 150
% z_offset = 0
% adaptive_slicing = 0
% adaptive_slicing_quality = 75%
% first_layer_height = 1.0
% layer_height = 1.0
% seam_position = nearest
% xy_size_compensation = 0
% fill_angle = 45
% fill_density = 60%
% fill_gaps = 1
% fill_pattern = Rectilinear
% perimeter_speed = 60
% infill_speed = 120
% solid_infill_speed = 60
% first_layer_speed = 20
% thin_walls = 1
% --- UFAMeasy Bead Parameters ---
% spot_size_mm = 1.2
% target_bead_width_mm = 1.2
% infill_bead_width_mm = 1.2
% bead_overlap_percent = 20
% estimated_stepover_mm = 0.960
; ===== SLICE 1 START (slice_1.gcode) =====
% --- UFAMeasy Bead Parameters ---
G90
G1 F1000
G55
%========== CUSTOM HEADER GCODE ==========
M59 P0 Q25 (PF TOTAL RATE)
M59 P1 Q30 (PF1 RATE)
M51 (CG ON)
G04 P0.2
M53 (PF GAS ON)
G04 P2.0
M55 (PF ON)
G90
G55

%PF Rate
M59 P0 Q25
%CG on
M51
%PF Gas on
M53
G04 P2.0
%PF on
M55
%2 Sec delay
G04 P2.0

G90 % use absolute coordinates
%==========================================


G1 Z4.000


G90 % use absolute coordinates
%LAYER_START 1 (Z=0.000)
G1 Z0.000
S210 P2000 Q95
G04 P0.2
M3 (START DEPOSITION)
% ===== LAYER START 1 (Z=0.000) =====
G1 X-9.074 Y-9.507
G1 X-9.507 Y-9.074
G1 X-9.507 Y-6.751
G1 X-6.751 Y-9.507
G1 X-4.428 Y-9.507
G1 X-9.507 Y-4.428
G1 X-9.507 Y-2.106
G1 X-2.106 Y-9.507
G1 X0.217 Y-9.507
G1 X-9.507 Y0.217
G1 X-9.507 Y2.540
G1 X2.540 Y-9.507
G1 X4.862 Y-9.507
G1 X-9.507 Y4.862
G1 X-9.507 Y7.185
G1 X7.185 Y-9.507
G1 X9.507 Y-9.507
G1 X-9.507 Y9.507
G1 X-7.185 Y9.507
G1 X9.507 Y-7.185
G1 X9.507 Y-4.862
G1 X-4.862 Y9.507
G1 X-2.540 Y9.507
G1 X9.507 Y-2.540
G1 X9.507 Y-0.217
G1 X-0.217 Y9.507
G1 X2.106 Y9.507
G1 X9.507 Y2.106
G1 X9.507 Y4.428
G1 X4.428 Y9.507
G1 X6.751 Y9.507
G1 X9.507 Y6.751
G1 X9.507 Y9.074
G1 X9.074 Y9.507
%LAYER_END 1
%LAYER_START 2 (Z=1.000)
%(LAYER POWER TRANSITION)
S200 P2000 Q95
G04 P0.2
% ===== LAYER END 1 =====
% ===== LAYER START 2 (Z=1.000) =====
G1 Z1.000
G1 X9.507 Y-9.074
G1 X9.074 Y-9.507
G1 X6.751 Y-9.507
G1 X9.507 Y-6.751
G1 X9.507 Y-4.428
G1 X4.428 Y-9.507
G1 X2.106 Y-9.507
G1 X9.507 Y-2.106
G1 X9.507 Y0.217
G1 X-0.217 Y-9.507
G1 X-2.540 Y-9.507
G1 X9.507 Y2.540
G1 X9.507 Y4.862
G1 X-4.862 Y-9.507
G1 X-7.185 Y-9.507
G1 X9.507 Y7.185
G1 X9.507 Y9.507
G1 X-9.507 Y-9.507
G1 X-9.507 Y-7.185
G1 X7.185 Y9.507
G1 X4.862 Y9.507
G1 X-9.507 Y-4.862
G1 X-9.507 Y-2.540
G1 X2.540 Y9.507
G1 X0.217 Y9.507
G1 X-9.507 Y-0.217
G1 X-9.507 Y2.106
G1 X-2.106 Y9.507
G1 X-4.428 Y9.507
G1 X-9.507 Y4.428
G1 X-9.507 Y6.751
G1 X-6.751 Y9.507
G1 X-9.074 Y9.507
G1 X-9.507 Y9.074
%LAYER_END 2
%LAYER_START 3 (Z=2.000)
% ===== LAYER END 2 =====
% ===== LAYER START 3 (Z=2.000) =====
G1 Z2.000
G1 X-9.074 Y-9.507
G1 X-9.507 Y-9.074
G1 X-9.507 Y-6.751
G1 X-6.751 Y-9.507
G1 X-4.428 Y-9.507
G1 X-9.507 Y-4.428
G1 X-9.507 Y-2.106
G1 X-2.106 Y-9.507
G1 X0.217 Y-9.507
G1 X-9.507 Y0.217
G1 X-9.507 Y2.540
G1 X2.540 Y-9.507
G1 X4.862 Y-9.507
G1 X-9.507 Y4.862
G1 X-9.507 Y7.185
G1 X7.185 Y-9.507
G1 X9.507 Y-9.507
G1 X-9.507 Y9.507
G1 X-7.185 Y9.507
G1 X9.507 Y-7.185
G1 X9.507 Y-4.862
G1 X-4.862 Y9.507
G1 X-2.540 Y9.507
G1 X9.507 Y-2.540
G1 X9.507 Y-0.217
G1 X-0.217 Y9.507
G1 X2.106 Y9.507
G1 X9.507 Y2.106
G1 X9.507 Y4.428
G1 X4.428 Y9.507
G1 X6.751 Y9.507
G1 X9.507 Y6.751
G1 X9.507 Y9.074
G1 X9.074 Y9.507
%LAYER_END 3
%LAYER_START 4 (Z=3.000)
% ===== LAYER END 3 =====
% ===== LAYER START 4 (Z=3.000) =====
G1 Z3.000
G1 X9.507 Y-9.074
G1 X9.074 Y-9.507
G1 X6.751 Y-9.507
G1 X9.507 Y-6.751
G1 X9.507 Y-4.428
G1 X4.428 Y-9.507
G1 X2.106 Y-9.507
G1 X9.507 Y-2.106
G1 X9.507 Y0.217
G1 X-0.217 Y-9.507
G1 X-2.540 Y-9.507
G1 X9.507 Y2.540
G1 X9.507 Y4.862
G1 X-4.862 Y-9.507
G1 X-7.185 Y-9.507
G1 X9.507 Y7.185
G1 X9.507 Y9.507
G1 X-9.507 Y-9.507
G1 X-9.507 Y-7.185
G1 X7.185 Y9.507
G1 X4.862 Y9.507
G1 X-9.507 Y-4.862
G1 X-9.507 Y-2.540
G1 X2.540 Y9.507
G1 X0.217 Y9.507
G1 X-9.507 Y-0.217
G1 X-9.507 Y2.106
G1 X-2.106 Y9.507
G1 X-4.428 Y9.507
G1 X-9.507 Y4.428
G1 X-9.507 Y6.751
G1 X-6.751 Y9.507
G1 X-9.074 Y9.507
G1 X-9.507 Y9.074
%LAYER_END 4
%LAYER_START 5 (Z=4.000)
% ===== LAYER END 4 =====
% ===== LAYER START 5 (Z=4.000) =====
G1 Z4.000
G1 X-9.074 Y-9.507
G1 X-9.507 Y-9.074
G1 X-9.507 Y-6.751
G1 X-6.751 Y-9.507
G1 X-4.428 Y-9.507
G1 X-9.507 Y-4.428
G1 X-9.507 Y-2.106
G1 X-2.106 Y-9.507
G1 X0.217 Y-9.507
G1 X-9.507 Y0.217
G1 X-9.507 Y2.540
G1 X2.540 Y-9.507
G1 X4.862 Y-9.507
G1 X-9.507 Y4.862
G1 X-9.507 Y7.185
G1 X7.185 Y-9.507
G1 X9.507 Y-9.507
G1 X-9.507 Y9.507
G1 X-7.185 Y9.507
G1 X9.507 Y-7.185
G1 X9.507 Y-4.862
G1 X-4.862 Y9.507
G1 X-2.540 Y9.507
G1 X9.507 Y-2.540
G1 X9.507 Y-0.217
G1 X-0.217 Y9.507
G1 X2.106 Y9.507
G1 X9.507 Y2.106
G1 X9.507 Y4.428
G1 X4.428 Y9.507
G1 X6.751 Y9.507
G1 X9.507 Y6.751
G1 X9.507 Y9.074
G1 X9.074 Y9.507
%LAYER_END 5
%LAYER_START 6 (Z=5.000)
% ===== LAYER END 5 =====
% ===== LAYER START 6 (Z=5.000) =====
G1 Z5.000
G1 X9.507 Y-9.074
G1 X9.074 Y-9.507
G1 X6.751 Y-9.507
G1 X9.507 Y-6.751
G1 X9.507 Y-4.428
G1 X4.428 Y-9.507
G1 X2.106 Y-9.507
G1 X9.507 Y-2.106
G1 X9.507 Y0.217
G1 X-0.217 Y-9.507
G1 X-2.540 Y-9.507
G1 X9.507 Y2.540
G1 X9.507 Y4.862
G1 X-4.862 Y-9.507
G1 X-7.185 Y-9.507
G1 X9.507 Y7.185
G1 X9.507 Y9.507
G1 X-9.507 Y-9.507
G1 X-9.507 Y-7.185
G1 X7.185 Y9.507
G1 X4.862 Y9.507
G1 X-9.507 Y-4.862
G1 X-9.507 Y-2.540
G1 X2.540 Y9.507
G1 X0.217 Y9.507
G1 X-9.507 Y-0.217
G1 X-9.507 Y2.106
G1 X-2.106 Y9.507
G1 X-4.428 Y9.507
G1 X-9.507 Y4.428
G1 X-9.507 Y6.751
G1 X-6.751 Y9.507
G1 X-9.074 Y9.507
G1 X-9.507 Y9.074
%LAYER_END 6
%LAYER_START 7 (Z=6.000)
% ===== LAYER END 6 =====
% ===== LAYER START 7 (Z=6.000) =====
G1 Z6.000
G1 X-9.074 Y-9.507
G1 X-9.507 Y-9.074
G1 X-9.507 Y-6.751
G1 X-6.751 Y-9.507
G1 X-4.428 Y-9.507
G1 X-9.507 Y-4.428
G1 X-9.507 Y-2.106
G1 X-2.106 Y-9.507
G1 X0.217 Y-9.507
G1 X-9.507 Y0.217
G1 X-9.507 Y2.540
G1 X2.540 Y-9.507
G1 X4.862 Y-9.507
G1 X-9.507 Y4.862
G1 X-9.507 Y7.185
G1 X7.185 Y-9.507
G1 X9.507 Y-9.507
G1 X-9.507 Y9.507
G1 X-7.185 Y9.507
G1 X9.507 Y-7.185
G1 X9.507 Y-4.862
G1 X-4.862 Y9.507
G1 X-2.540 Y9.507
G1 X9.507 Y-2.540
G1 X9.507 Y-0.217
G1 X-0.217 Y9.507
G1 X2.106 Y9.507
G1 X9.507 Y2.106
G1 X9.507 Y4.428
G1 X4.428 Y9.507
G1 X6.751 Y9.507
G1 X9.507 Y6.751
G1 X9.507 Y9.074
G1 X9.074 Y9.507
%LAYER_END 7
%LAYER_START 8 (Z=7.000)
% ===== LAYER END 7 =====
% ===== LAYER START 8 (Z=7.000) =====
G1 Z7.000
G1 X9.507 Y-9.074
G1 X9.074 Y-9.507
G1 X6.751 Y-9.507
G1 X9.507 Y-6.751
G1 X9.507 Y-4.428
G1 X4.428 Y-9.507
G1 X2.106 Y-9.507
G1 X9.507 Y-2.106
G1 X9.507 Y0.217
G1 X-0.217 Y-9.507
G1 X-2.540 Y-9.507
G1 X9.507 Y2.540
G1 X9.507 Y4.862
G1 X-4.862 Y-9.507
G1 X-7.185 Y-9.507
G1 X9.507 Y7.185
G1 X9.507 Y9.507
G1 X-9.507 Y-9.507
G1 X-9.507 Y-7.185
G1 X7.185 Y9.507
G1 X4.862 Y9.507
G1 X-9.507 Y-4.862
G1 X-9.507 Y-2.540
G1 X2.540 Y9.507
G1 X0.217 Y9.507
G1 X-9.507 Y-0.217
G1 X-9.507 Y2.106
G1 X-2.106 Y9.507
G1 X-4.428 Y9.507
G1 X-9.507 Y4.428
G1 X-9.507 Y6.751
G1 X-6.751 Y9.507
G1 X-9.074 Y9.507
G1 X-9.507 Y9.074
%LAYER_END 8
%LAYER_START 9 (Z=8.000)
% ===== LAYER END 8 =====
% ===== LAYER START 9 (Z=8.000) =====
G1 Z8.000
G1 X-9.074 Y-9.507
G1 X-9.507 Y-9.074
G1 X-9.507 Y-6.751
G1 X-6.751 Y-9.507
G1 X-4.428 Y-9.507
G1 X-9.507 Y-4.428
G1 X-9.507 Y-2.106
G1 X-2.106 Y-9.507
G1 X0.217 Y-9.507
G1 X-9.507 Y0.217
G1 X-9.507 Y2.540
G1 X2.540 Y-9.507
G1 X4.862 Y-9.507
G1 X-9.507 Y4.862
G1 X-9.507 Y7.185
G1 X7.185 Y-9.507
G1 X9.507 Y-9.507
G1 X-9.507 Y9.507
G1 X-7.185 Y9.507
G1 X9.507 Y-7.185
G1 X9.507 Y-4.862
G1 X-4.862 Y9.507
G1 X-2.540 Y9.507
G1 X9.507 Y-2.540
G1 X9.507 Y-0.217
G1 X-0.217 Y9.507
G1 X2.106 Y9.507
G1 X9.507 Y2.106
G1 X9.507 Y4.428
G1 X4.428 Y9.507
G1 X6.751 Y9.507
G1 X9.507 Y6.751
G1 X9.507 Y9.074
G1 X9.074 Y9.507
%LAYER_END 9
%LAYER_START 10 (Z=9.000)
% ===== LAYER END 9 =====
% ===== LAYER START 10 (Z=9.000) =====
G1 Z9.000
G1 X9.507 Y-9.074
G1 X9.074 Y-9.507
G1 X6.751 Y-9.507
G1 X9.507 Y-6.751
G1 X9.507 Y-4.428
G1 X4.428 Y-9.507
G1 X2.106 Y-9.507
G1 X9.507 Y-2.106
G1 X9.507 Y0.217
G1 X-0.217 Y-9.507
G1 X-2.540 Y-9.507
G1 X9.507 Y2.540
G1 X9.507 Y4.862
G1 X-4.862 Y-9.507
G1 X-7.185 Y-9.507
G1 X9.507 Y7.185
G1 X9.507 Y9.507
G1 X-9.507 Y-9.507
G1 X-9.507 Y-7.185
G1 X7.185 Y9.507
G1 X4.862 Y9.507
G1 X-9.507 Y-4.862
G1 X-9.507 Y-2.540
G1 X2.540 Y9.507
G1 X0.217 Y9.507
G1 X-9.507 Y-0.217
G1 X-9.507 Y2.106
G1 X-2.106 Y9.507
G1 X-4.428 Y9.507
G1 X-9.507 Y4.428
G1 X-9.507 Y6.751
G1 X-6.751 Y9.507
G1 X-9.074 Y9.507
G1 X-9.507 Y9.074



%LAYER_END 10
%LAYER_END 10
; ===== SLICE 1 END (slice_1.gcode) =====
; ===== SLICE 2 START (slice_2.gcode) =====

; --- start slice_2.gcode ---
G92 E0
M59 P0 Q25 (PF TOTAL RATE)
M59 P1 Q20 (PF1 RATE)
M59 P2 Q10 (PF2 RATE)
% ===== LAYER END 10 =====
% ===== LAYER START 11 (Z=10.000) =====
G1 Z10.000
G1 X-9.074 Y-9.507
G1 X-9.507 Y-9.074
G1 X-9.507 Y-6.751
G1 X-6.751 Y-9.507
G1 X-4.428 Y-9.507
G1 X-9.507 Y-4.428
G1 X-9.507 Y-2.106
G1 X-2.106 Y-9.507
G1 X0.217 Y-9.507
G1 X-9.507 Y0.217
G1 X-9.507 Y2.540
G1 X2.540 Y-9.507
G1 X4.862 Y-9.507
G1 X-9.507 Y4.862
G1 X-9.507 Y7.185
G1 X7.185 Y-9.507
G1 X9.507 Y-9.507
G1 X-9.507 Y9.507
G1 X-7.185 Y9.507
G1 X9.507 Y-7.185
G1 X9.507 Y-4.862
G1 X-4.862 Y9.507
G1 X-2.540 Y9.507
G1 X9.507 Y-2.540
G1 X9.507 Y-0.217
G1 X-0.217 Y9.507
G1 X2.106 Y9.507
G1 X9.507 Y2.106
G1 X9.507 Y4.428
G1 X4.428 Y9.507
G1 X6.751 Y9.507
G1 X9.507 Y6.751
G1 X9.507 Y9.074
G1 X9.074 Y9.507
%LAYER_END 10
%LAYER_START 11 (Z=11.000)
% ===== LAYER END 11 =====
% ===== LAYER START 12 (Z=11.000) =====
G1 Z11.000
G1 X9.507 Y-9.074
G1 X9.074 Y-9.507
G1 X6.751 Y-9.507
G1 X9.507 Y-6.751
G1 X9.507 Y-4.428
G1 X4.428 Y-9.507
G1 X2.106 Y-9.507
G1 X9.507 Y-2.106
G1 X9.507 Y0.217
G1 X-0.217 Y-9.507
G1 X-2.540 Y-9.507
G1 X9.507 Y2.540
G1 X9.507 Y4.862
G1 X-4.862 Y-9.507
G1 X-7.185 Y-9.507
G1 X9.507 Y7.185
G1 X9.507 Y9.507
G1 X-9.507 Y-9.507
G1 X-9.507 Y-7.185
G1 X7.185 Y9.507
G1 X4.862 Y9.507
G1 X-9.507 Y-4.862
G1 X-9.507 Y-2.540
G1 X2.540 Y9.507
G1 X0.217 Y9.507
G1 X-9.507 Y-0.217
G1 X-9.507 Y2.106
G1 X-2.106 Y9.507
G1 X-4.428 Y9.507
G1 X-9.507 Y4.428
G1 X-9.507 Y6.751
G1 X-6.751 Y9.507
G1 X-9.074 Y9.507
G1 X-9.507 Y9.074
%LAYER_END 11
%LAYER_START 12 (Z=12.000)
% ===== LAYER END 12 =====
% ===== LAYER START 13 (Z=12.000) =====
G1 Z12.000
G1 X-9.074 Y-9.507
G1 X-9.507 Y-9.074
G1 X-9.507 Y-6.751
G1 X-6.751 Y-9.507
G1 X-4.428 Y-9.507
G1 X-9.507 Y-4.428
G1 X-9.507 Y-2.106
G1 X-2.106 Y-9.507
G1 X0.217 Y-9.507
G1 X-9.507 Y0.217
G1 X-9.507 Y2.540
G1 X2.540 Y-9.507
G1 X4.862 Y-9.507
G1 X-9.507 Y4.862
G1 X-9.507 Y7.185
G1 X7.185 Y-9.507
G1 X9.507 Y-9.507
G1 X-9.507 Y9.507
G1 X-7.185 Y9.507
G1 X9.507 Y-7.185
G1 X9.507 Y-4.862
G1 X-4.862 Y9.507
G1 X-2.540 Y9.507
G1 X9.507 Y-2.540
G1 X9.507 Y-0.217
G1 X-0.217 Y9.507
G1 X2.106 Y9.507
G1 X9.507 Y2.106
G1 X9.507 Y4.428
G1 X4.428 Y9.507
G1 X6.751 Y9.507
G1 X9.507 Y6.751
G1 X9.507 Y9.074
G1 X9.074 Y9.507
%LAYER_END 12
%LAYER_START 13 (Z=13.000)
% ===== LAYER END 13 =====
% ===== LAYER START 14 (Z=13.000) =====
G1 Z13.000
G1 X9.507 Y-9.074
G1 X9.074 Y-9.507
G1 X6.751 Y-9.507
G1 X9.507 Y-6.751
G1 X9.507 Y-4.428
G1 X4.428 Y-9.507
G1 X2.106 Y-9.507
G1 X9.507 Y-2.106
G1 X9.507 Y0.217
G1 X-0.217 Y-9.507
G1 X-2.540 Y-9.507
G1 X9.507 Y2.540
G1 X9.507 Y4.862
G1 X-4.862 Y-9.507
G1 X-7.185 Y-9.507
G1 X9.507 Y7.185
G1 X9.507 Y9.507
G1 X-9.507 Y-9.507
G1 X-9.507 Y-7.185
G1 X7.185 Y9.507
G1 X4.862 Y9.507
G1 X-9.507 Y-4.862
G1 X-9.507 Y-2.540
G1 X2.540 Y9.507
G1 X0.217 Y9.507
G1 X-9.507 Y-0.217
G1 X-9.507 Y2.106
G1 X-2.106 Y9.507
G1 X-4.428 Y9.507
G1 X-9.507 Y4.428
G1 X-9.507 Y6.751
G1 X-6.751 Y9.507
G1 X-9.074 Y9.507
G1 X-9.507 Y9.074
%LAYER_END 13
%LAYER_START 14 (Z=14.000)
% ===== LAYER END 14 =====
% ===== LAYER START 15 (Z=14.000) =====
G1 Z14.000
G1 X-9.074 Y-9.507
G1 X-9.507 Y-9.074
G1 X-9.507 Y-6.751
G1 X-6.751 Y-9.507
G1 X-4.428 Y-9.507
G1 X-9.507 Y-4.428
G1 X-9.507 Y-2.106
G1 X-2.106 Y-9.507
G1 X0.217 Y-9.507
G1 X-9.507 Y0.217
G1 X-9.507 Y2.540
G1 X2.540 Y-9.507
G1 X4.862 Y-9.507
G1 X-9.507 Y4.862
G1 X-9.507 Y7.185
G1 X7.185 Y-9.507
G1 X9.507 Y-9.507
G1 X-9.507 Y9.507
G1 X-7.185 Y9.507
G1 X9.507 Y-7.185
G1 X9.507 Y-4.862
G1 X-4.862 Y9.507
G1 X-2.540 Y9.507
G1 X9.507 Y-2.540
G1 X9.507 Y-0.217
G1 X-0.217 Y9.507
G1 X2.106 Y9.507
G1 X9.507 Y2.106
G1 X9.507 Y4.428
G1 X4.428 Y9.507
G1 X6.751 Y9.507
G1 X9.507 Y6.751
G1 X9.507 Y9.074
G1 X9.074 Y9.507
%LAYER_END 14
%LAYER_START 15 (Z=15.000)
% ===== LAYER END 15 =====
% ===== LAYER START 16 (Z=15.000) =====
G1 Z15.000
G1 X9.507 Y-9.074
G1 X9.074 Y-9.507
G1 X6.751 Y-9.507
G1 X9.507 Y-6.751
G1 X9.507 Y-4.428
G1 X4.428 Y-9.507
G1 X2.106 Y-9.507
G1 X9.507 Y-2.106
G1 X9.507 Y0.217
G1 X-0.217 Y-9.507
G1 X-2.540 Y-9.507
G1 X9.507 Y2.540
G1 X9.507 Y4.862
G1 X-4.862 Y-9.507
G1 X-7.185 Y-9.507
G1 X9.507 Y7.185
G1 X9.507 Y9.507
G1 X-9.507 Y-9.507
G1 X-9.507 Y-7.185
G1 X7.185 Y9.507
G1 X4.862 Y9.507
G1 X-9.507 Y-4.862
G1 X-9.507 Y-2.540
G1 X2.540 Y9.507
G1 X0.217 Y9.507
G1 X-9.507 Y-0.217
G1 X-9.507 Y2.106
G1 X-2.106 Y9.507
G1 X-4.428 Y9.507
G1 X-9.507 Y4.428
G1 X-9.507 Y6.751
G1 X-6.751 Y9.507
G1 X-9.074 Y9.507
G1 X-9.507 Y9.074
%LAYER_END 15
%LAYER_START 16 (Z=16.000)
% ===== LAYER END 16 =====
% ===== LAYER START 17 (Z=16.000) =====
G1 Z16.000
G1 X-9.074 Y-9.507
G1 X-9.507 Y-9.074
G1 X-9.507 Y-6.751
G1 X-6.751 Y-9.507
G1 X-4.428 Y-9.507
G1 X-9.507 Y-4.428
G1 X-9.507 Y-2.106
G1 X-2.106 Y-9.507
G1 X0.217 Y-9.507
G1 X-9.507 Y0.217
G1 X-9.507 Y2.540
G1 X2.540 Y-9.507
G1 X4.862 Y-9.507
G1 X-9.507 Y4.862
G1 X-9.507 Y7.185
G1 X7.185 Y-9.507
G1 X9.507 Y-9.507
G1 X-9.507 Y9.507
G1 X-7.185 Y9.507
G1 X9.507 Y-7.185
G1 X9.507 Y-4.862
G1 X-4.862 Y9.507
G1 X-2.540 Y9.507
G1 X9.507 Y-2.540
G1 X9.507 Y-0.217
G1 X-0.217 Y9.507
G1 X2.106 Y9.507
G1 X9.507 Y2.106
G1 X9.507 Y4.428
G1 X4.428 Y9.507
G1 X6.751 Y9.507
G1 X9.507 Y6.751
G1 X9.507 Y9.074
G1 X9.074 Y9.507
%LAYER_END 16
%LAYER_START 17 (Z=17.000)
% ===== LAYER END 17 =====
% ===== LAYER START 18 (Z=17.000) =====
G1 Z17.000
G1 X9.507 Y-9.074
G1 X9.074 Y-9.507
G1 X6.751 Y-9.507
G1 X9.507 Y-6.751
G1 X9.507 Y-4.428
G1 X4.428 Y-9.507
G1 X2.106 Y-9.507
G1 X9.507 Y-2.106
G1 X9.507 Y0.217
G1 X-0.217 Y-9.507
G1 X-2.540 Y-9.507
G1 X9.507 Y2.540
G1 X9.507 Y4.862
G1 X-4.862 Y-9.507
G1 X-7.185 Y-9.507
G1 X9.507 Y7.185
G1 X9.507 Y9.507
G1 X-9.507 Y-9.507
G1 X-9.507 Y-7.185
G1 X7.185 Y9.507
G1 X4.862 Y9.507
G1 X-9.507 Y-4.862
G1 X-9.507 Y-2.540
G1 X2.540 Y9.507
G1 X0.217 Y9.507
G1 X-9.507 Y-0.217
G1 X-9.507 Y2.106
G1 X-2.106 Y9.507
G1 X-4.428 Y9.507
G1 X-9.507 Y4.428
G1 X-9.507 Y6.751
G1 X-6.751 Y9.507
G1 X-9.074 Y9.507
G1 X-9.507 Y9.074
%LAYER_END 17
%LAYER_START 18 (Z=18.000)
% ===== LAYER END 18 =====
% ===== LAYER START 19 (Z=18.000) =====
G1 Z18.000
G1 X-9.074 Y-9.507
G1 X-9.507 Y-9.074
G1 X-9.507 Y-6.751
G1 X-6.751 Y-9.507
G1 X-4.428 Y-9.507
G1 X-9.507 Y-4.428
G1 X-9.507 Y-2.106
G1 X-2.106 Y-9.507
G1 X0.217 Y-9.507
G1 X-9.507 Y0.217
G1 X-9.507 Y2.540
G1 X2.540 Y-9.507
G1 X4.862 Y-9.507
G1 X-9.507 Y4.862
G1 X-9.507 Y7.185
G1 X7.185 Y-9.507
G1 X9.507 Y-9.507
G1 X-9.507 Y9.507
G1 X-7.185 Y9.507
G1 X9.507 Y-7.185
G1 X9.507 Y-4.862
G1 X-4.862 Y9.507
G1 X-2.540 Y9.507
G1 X9.507 Y-2.540
G1 X9.507 Y-0.217
G1 X-0.217 Y9.507
G1 X2.106 Y9.507
G1 X9.507 Y2.106
G1 X9.507 Y4.428
G1 X4.428 Y9.507
G1 X6.751 Y9.507
G1 X9.507 Y6.751
G1 X9.507 Y9.074
G1 X9.074 Y9.507
%LAYER_END 18
%LAYER_START 19 (Z=19.000)
% ===== LAYER END 19 =====
% ===== LAYER START 20 (Z=19.000) =====
G1 Z19.000
G1 X9.507 Y-9.074
G1 X9.074 Y-9.507
G1 X6.751 Y-9.507
G1 X9.507 Y-6.751
G1 X9.507 Y-4.428
G1 X4.428 Y-9.507
G1 X2.106 Y-9.507
G1 X9.507 Y-2.106
G1 X9.507 Y0.217
G1 X-0.217 Y-9.507
G1 X-2.540 Y-9.507
G1 X9.507 Y2.540
G1 X9.507 Y4.862
G1 X-4.862 Y-9.507
G1 X-7.185 Y-9.507
G1 X9.507 Y7.185
G1 X9.507 Y9.507
G1 X-9.507 Y-9.507
G1 X-9.507 Y-7.185
G1 X7.185 Y9.507
G1 X4.862 Y9.507
G1 X-9.507 Y-4.862
G1 X-9.507 Y-2.540
G1 X2.540 Y9.507
G1 X0.217 Y9.507
G1 X-9.507 Y-0.217
G1 X-9.507 Y2.106
G1 X-2.106 Y9.507
G1 X-4.428 Y9.507
G1 X-9.507 Y4.428
G1 X-9.507 Y6.751
G1 X-6.751 Y9.507
G1 X-9.074 Y9.507
G1 X-9.507 Y9.074



%LAYER_END 19
%LAYER_END 19
; ===== SLICE 2 END (slice_2.gcode) =====
% ===== LAYER END 20 =====
M5 (STOP DEPOSITION)
G04 P2.0
M56 (PF OFF)
G04 P0.2
M54 (PF GAS OFF)
G04 P2.0
M52 (CG OFF)
G04 P0.2
%========== CUSTOM FOOTER GCODE ==========
G04 P2.0
%PF off
%2 Sec delay
G04 P2.0
%PF Gas off
%CG off
%==========================================
M30 (PROGRAM END)
